ametion_vv-test/img/support-main-block-plane.svg

<svg width="263" height="196" viewBox="0 0 263 196" fill="none" xmlns="http://www.w3.org/2000/svg">
<path d="M104.795 130.218C98.9136 146.327 94.9879 165.653 105.348 167.512C115.707 169.37 114.322 146.244 126.055 140.56C137.789 134.877 156.942 146.634 163.497 147.997C170.052 149.361 177.308 151.733 176.7 134.822C176.092 117.911 170.476 63.4865 169.043 49.3156C167.61 35.1447 156.281 34.4612 145.517 41.277C134.752 48.0928 54.3434 105.832 47.8639 113.576C41.3845 121.32 41.6582 124.158 47.8219 125.263C53.9857 126.369 73.1823 132.219 83.6415 124.598C99.6497 112.934 133.657 71.9232 139.136 73.193C144.488 74.4331 109.372 117.682 104.795 130.218Z" fill="#5992E8"/>
<path d="M8.76829 174.438C4.16404 177.132 -0.609453 180.986 1.50507 183.486C3.61959 185.986 7.87372 180.168 11.8132 181.133C15.7527 182.097 18.012 188.714 19.3127 190.34C20.6135 191.967 21.8822 193.975 25.0902 189.801C28.2982 185.627 37.745 171.468 40.2118 167.787C42.6787 164.107 40.0987 161.696 36.1669 161.195C32.2351 160.694 1.51174 158.587 -1.57701 159.159C-4.66577 159.73 -5.16302 160.464 -3.90484 161.952C-2.64667 163.439 0.794284 168.648 4.81259 168.896C10.9627 169.274 27.2467 166.189 28.3082 167.58C29.3451 168.938 12.3515 172.34 8.76829 174.438Z" fill="#5992E8"/>
<path d="M247.169 20.4142C247.629 23.4757 248.677 26.8781 250.48 26.2772C252.282 25.6763 250.064 22.1307 251.432 20.2157C252.801 18.3007 256.852 18.5086 258.009 18.1582C259.166 17.8077 260.521 17.5565 258.963 14.9287C257.405 12.3009 251.811 4.16041 250.359 2.03824C248.907 -0.0839242 247.052 0.786969 245.935 2.79767C244.818 4.80838 237.064 20.9098 236.707 22.6972C236.349 24.4847 236.638 24.9108 237.71 24.5533C238.783 24.1957 242.331 23.4638 243.33 21.3518C244.859 18.1194 246.704 8.68007 247.682 8.40771C248.638 8.14168 246.81 18.0316 247.169 20.4142Z" fill="#5992E8"/>
</svg>

<svg width="263" height="196" fill="none" xmlns="http://www.w3.org/2000/svg"><path d="M104.795 130.218c-5.881 16.109-9.807 35.435.553 37.294 10.359 1.858 8.974-21.268 20.707-26.952 11.734-5.683 30.887 6.074 37.442 7.437 6.555 1.364 13.811 3.736 13.203-13.175-.608-16.911-6.224-71.335-7.657-85.506-1.433-14.171-12.762-14.855-23.526-8.039-10.765 6.816-91.174 64.555-97.653 72.299-6.48 7.744-6.206 10.582-.042 11.687 6.164 1.106 25.36 6.956 35.82-.665 16.008-11.664 50.015-52.675 55.494-51.405 5.352 1.24-29.764 44.489-34.341 57.025zm-96.027 44.22c-4.604 2.694-9.377 6.548-7.263 9.048 2.115 2.5 6.369-3.318 10.308-2.353 3.94.964 6.199 7.581 7.5 9.207 1.3 1.627 2.57 3.635 5.777-.539 3.208-4.174 12.655-18.333 15.122-22.014 2.467-3.68-.113-6.091-4.045-6.592-3.932-.501-34.655-2.608-37.744-2.036-3.089.571-3.586 1.305-2.328 2.793 1.258 1.487 4.7 6.696 8.718 6.944 6.15.378 22.434-2.707 23.495-1.316 1.037 1.358-15.957 4.76-19.54 6.858zM247.169 20.414c.46 3.062 1.508 6.464 3.311 5.863 1.802-.6-.416-4.146.952-6.061 1.369-1.915 5.42-1.707 6.577-2.058 1.157-.35 2.512-.602.954-3.23-1.558-2.627-7.152-10.768-8.604-12.89-1.452-2.122-3.307-1.251-4.424.76-1.117 2.01-8.871 18.112-9.228 19.9-.358 1.787-.069 2.213 1.003 1.855 1.073-.357 4.621-1.09 5.62-3.201 1.529-3.233 3.374-12.672 4.352-12.944.956-.266-.872 9.624-.513 12.006z" fill="#5992E8"/></svg>
